icon-themes/sifr_svg/cmd/sc_connectorlinearrows.svg

<svg viewBox="0 0 16 16" xmlns="http://www.w3.org/2000/svg"><path d="m1 1v6l1 1 1-1v-2.5859375l8.585938 8.5859375h-2.585938l-1 1 1 1h6v-6l-1-1-1 1v2.585938l-8.5859375-8.585938h2.5859375l1-1-1-1z" fill="#555753"/></svg>

<svg xmlns="http://www.w3.org/2000/svg" viewBox="0 0 16 16">
  <path
     style="fill:#555753"
     d="M 1 1 L 1 7 L 2 8 L 3 7 L 3 4.4140625 L 11.585938 13 L 9 13 L 8 14 L 9 15 L 15 15 L 15 9 L 14 8 L 13 9 L 13 11.585938 L 4.4140625 3 L 7 3 L 8 2 L 7 1 L 1 1 z "
     />
</svg>
